src/img/Ordenar.svg

<svg width="24" height="25" viewBox="0 0 24 25" fill="none" xmlns="http://www.w3.org/2000/svg">
<path d="M17.2383 9.06836C17.332 8.97461 17.4375 8.93359 17.5547 8.94531C17.6836 8.94531 17.7949 8.99219 17.8887 9.08594C17.9707 9.16797 18.0059 9.27344 17.9941 9.40234C17.9941 9.51953 17.9531 9.61914 17.8711 9.70117L12.5273 15.0273C12.3867 15.1797 12.2109 15.2559 12 15.2559C11.8008 15.2559 11.625 15.1797 11.4727 15.0273L6.12891 9.70117C6.04688 9.60742 6.00586 9.50195 6.00586 9.38477C6.00586 9.25586 6.04688 9.15039 6.12891 9.06836C6.22266 8.97461 6.32812 8.92773 6.44531 8.92773C6.57422 8.92773 6.67969 8.97461 6.76172 9.06836L12 14.3066L17.2383 9.06836Z" fill="#231D19"/>
</svg>

<svg width="24" height="25" fill="none" xmlns="http://www.w3.org/2000/svg"><path d="M17.238 9.068a.38.38 0 01.317-.123c.129 0 .24.047.334.14a.376.376 0 01.105.317.407.407 0 01-.123.3l-5.344 5.325a.688.688 0 01-.527.229.724.724 0 01-.527-.229L6.129 9.701a.468.468 0 01-.123-.316c0-.13.04-.235.123-.317a.44.44 0 01.316-.14c.13 0 .235.047.317.14L12 14.307l5.238-5.239z" fill="#231D19"/></svg>
